X: 10533
M: 6/8
L: 1/8
K: D
e |\
fdf f<af | g<bg f<af | g>fe def | gee e2g |
f>ed f<af | g<bg f<ae | fed dde | fdd d2 |]\
g |\
fdf ece | dBd AFD | D>ED dde | fee He2a/a/ |\
fdf ece | dBd AFD | D>ED dde | fdd d2 |]


